**kern	**silbe	**harmony	**phrase	**leadinstrument	**rhyme	**timestamp	**harte
*ICvox	*	*M4/4	*	*	*	*	*M4/4
*VRlead	*	*	*	*	*	*	*
*Hstimme	*	*	*	*	*	*	*
*A-:	*	*A-:	*	*	*	*	*A-:
*M4/4	*	*	*	*	*	*	*
*clefG2	*	*	*	*	*	*	*
r;	.	1r;	.	r	.	0	N.C.
=1	=1	=1	=1	=1	=1	=1	=1
*>Letter>A	*>Letter>A	*>Letter>A	*>Letter>A	*>Letter>A	*>Letter>A	*>Letter>A	*>Letter>A
*>Label>Intro	*>Label>Intro	*>Label>Intro	*>Label>Intro	*>Label>Intro	*>Label>Intro	*>Label>Intro	*>Label>Intro
1r	.	1A-M	newline	r	.	0.163	A-:maj
=2	=2	=2	=2	=2	=2	=2	=2
1r	.	1D-M	.	r	.	2.101	D-:maj
=3	=3	=3	=3	=3	=3	=3	=3
*>Letter>B	*>Letter>B	*>Letter>B	*>Letter>B	*>Letter>B	*>Letter>B	*>Letter>B	*>Letter>B
*>Label>Chorus	*>Label>Chorus	*>Label>Chorus	*>Label>Chorus	*>Label>Chorus	*>Label>Chorus	*>Label>Chorus	*>Label>Chorus
4a-	I	1A-M	newline	voice	.	4.04	A-:maj
4A-	don't	.	.	.	.	.	.
8A-	blame	.	.	.	.	.	.
8c	you	.	.	.	.	.	.
8e-	at	.	.	.	.	.	.
[8g-	all	.	.	.	.	.	.
=4	=4	=4	=4	=4	=4	=4	=4
4g-]	_	1G-M	.	voice	.	5.979	G-:maj
4f	'cause	.	.	.	.	.	.
8f	you	.	.	.	.	.	.
8e-	played	.	.	.	.	.	.
8d-	it	.	.	.	.	.	.
[8f	cool	.	.	.	A	.	.
=5	=5	=5	=5	=5	=5	=5	=5
8f]	_	1A-M	.	voice	.	7.918	A-:maj
[4.e-	_	.	.	.	.	.	.
4e-]	_	.	.	.	.	.	.
8d-	no	.	.	.	.	.	.
8c	_	.	.	.	.	.	.
=6	=6	=6	=6	=6	=6	=6	=6
8d-	_	1A-M	.	voice	.	9.857	A-:maj
8e-	_	.	.	.	.	.	.
4r	.	.	.	.	.	.	.
2r	.	.	.	.	.	.	.
=7	=7	=7	=7	=7	=7	=7	=7
4a-	You	1A-M	newline	voice	.	11.796	A-:maj
4A-	don't	.	.	.	.	.	.
8A-	owe	.	.	.	.	.	.
8c	me	.	.	.	.	.	.
8e-	a	.	.	.	.	.	.
[8g-	thing	.	.	.	.	.	.
=8	=8	=8	=8	=8	=8	=8	=8
4g-]	_	1G-M	.	voice	.	13.739	G-:maj
4f	'cause	.	.	.	.	.	.
8f	I	.	.	.	.	.	.
8e-	played	.	.	.	.	.	.
8d-	the	.	.	.	.	.	.
[8f	fool	.	.	.	A	.	.
=9	=9	=9	=9	=9	=9	=9	=9
8f]	_	1A-M	.	voice	.	15.681	A-:maj
4.e-	_	.	.	.	.	.	.
8r	.	.	.	.	.	.	.
8e-	Oh	.	.	.	.	.	.
8f	no	.	.	.	.	.	.
[8a-	no	.	.	.	.	.	.
=10	=10	=10	=10	=10	=10	=10	=10
8a-]	_	1A-M	.	voice	.	17.623	A-:maj
4a-	no	.	.	.	.	.	.
8a-	no	.	.	.	.	.	.
8r	.	.	.	.	.	.	.
8a-	I'm	.	.	.	.	.	.
8f	on-	.	.	.	.	.	.
8e-	-ly	.	.	.	.	.	.
=11	=11	=11	=11	=11	=11	=11	=11
*>Letter>C	*>Letter>C	*>Letter>C	*>Letter>C	*>Letter>C	*>Letter>C	*>Letter>C	*>Letter>C
*>Label>Verse	*>Label>Verse	*>Label>Verse	*>Label>Verse	*>Label>Verse	*>Label>Verse	*>Label>Verse	*>Label>Verse
8a-	pay-	1A-M	newline	voice	.	19.566	A-:maj
8a-	-ing	.	.	.	.	.	.
8a-	the	.	.	.	.	.	.
[8e-	price	.	.	.	B	.	.
8e-]	_	.	.	.	.	.	.
4.f	_	.	.	.	.	.	.
=12	=12	=12	=12	=12	=12	=12	=12
8r	.	2E-m	.	voice	.	21.512	E-:min
4g-	For	.	.	.	.	.	.
8g-	a	.	.	.	.	.	.
8f	trip	2D-M	.	voice	.	22.485	D-:maj
8f	I	.	.	.	.	.	.
8f	took	.	.	.	.	.	.
8f	to	.	.	.	.	.	.
=13	=13	=13	=13	=13	=13	=13	=13
4g-	par-	1A-M	.	voice	.	23.458	A-:maj
8f	-a-	.	.	.	.	.	.
16g-	-dise	.	.	.	B	.	.
16f	_	.	.	.	.	.	.
2e-	_	.	.	.	.	.	.
=14	=14	=14	=14	=14	=14	=14	=14
8r	.	2E-m	.	voice	.	25.404	E-:min
4g-	'cause	.	.	.	.	.	.
8g-	I	.	.	.	.	.	.
8f	looked	2D-M	.	voice	.	26.377	D-:maj
8f	in-	.	.	.	.	.	.
8f	-to	.	.	.	.	.	.
8f	a	.	.	.	.	.	.
=15	=15	=15	=15	=15	=15	=15	=15
4g-	pair	1G-M	newline	voice	.	27.35	G-:maj
8f	of	.	.	.	.	.	.
[8g-	eyes	.	.	.	B	.	.
8g-]	_	.	.	.	.	.	.
8f	and	.	.	.	.	.	.
8g-	what	.	.	.	.	.	.
8d-	I	.	.	.	.	.	.
=16	=16	=16	=16	=16	=16	=16	=16
4f	thought	1D-M	.	voice	.	29.279	D-:maj
8f	was	.	.	.	.	.	.
8f	the	.	.	.	.	.	.
8f	look	.	.	.	.	.	.
4f	of	.	.	.	.	.	.
[8f	love	.	.	.	.	.	.
=17	=17	=17	=17	=17	=17	=17	=17
1f]	_	1D-MM	.	voice	.	31.208	D-:maj7
=18	=18	=18	=18	=18	=18	=18	=18
2a-	_	1Dd	.	voice	.	33.137	D:dim
8r	.	.	.	.	.	.	.
8a-	Was	.	.	.	.	.	.
8f	on-	.	.	.	.	.	.
8e-	-ly	.	.	.	.	.	.
=19	=19	=19	=19	=19	=19	=19	=19
8a-	hurt	2A-M	newline	voice	.	35.067	A-:maj/5
8a-	in	.	.	.	.	.	.
8a-	dis-	.	.	.	.	.	.
[8A-	-guise	.	.	.	B	.	.
2A-]	_	2A-M	.	voice	.	36.049	A-:maj
=20	=20	=20	=20	=20	=20	=20	=20
4r	.	1A-M	.	voice	.	37.032	A-:maj
8f	too	.	.	.	.	.	.
[8g-	bad	.	.	.	.	.	.
8g-]	_	.	.	.	.	.	.
8f	I	.	.	.	.	.	.
8f	did-	.	.	.	.	.	.
8e-	-n't	.	.	.	.	.	.
=21	=21	=21	=21	=21	=21	=21	=21
4f	re-	1A-M	newline	voice	.	38.997	A-:maj
8e-	-a-	.	.	.	.	.	.
[8e-	-lize	.	.	.	B	.	.
2e-]	_	.	.	.	.	.	.
=22	=22	=22	=22	=22	=22	=22	=22
4r	.	1A-M	.	voice	.	40.919	A-:maj
8r	.	.	.	.	.	.	.
[8e-	Oh,	.	.	.	.	.	.
8e-]	_	.	.	.	.	.	.
8e-	but	.	.	.	.	.	.
8d-	don't	.	.	.	.	.	.
8c	a-	.	.	.	.	.	.
=23	=23	=23	=23	=23	=23	=23	=23
4d-	-po-	1D-M	.	voice	.	42.842	D-:maj/5
8c	-lo-	.	.	.	.	.	.
[8c	-gize	.	.	.	B	.	.
2c]	_	.	.	.	.	.	.
=24	=24	=24	=24	=24	=24	=24	=24
4r	.	1A-M	.	voice	.	44.765	A-:maj
8r	.	.	.	.	.	.	.
[8f	No	.	.	.	.	.	.
8f]	_	.	.	.	.	.	.
4a-	'cause	.	.	.	.	.	.
8r	.	.	.	.	.	.	.
=25	=25	=25	=25	=25	=25	=25	=25
*>Letter>B	*>Letter>B	*>Letter>B	*>Letter>B	*>Letter>B	*>Letter>B	*>Letter>B	*>Letter>B
*>Label>Chorus	*>Label>Chorus	*>Label>Chorus	*>Label>Chorus	*>Label>Chorus	*>Label>Chorus	*>Label>Chorus	*>Label>Chorus
4a-	I	1A-M	newline	voice	.	46.688	A-:maj
4A-	don't	.	.	.	.	.	.
8A-	blame	.	.	.	.	.	.
8c	you	.	.	.	.	.	.
8e-	at	.	.	.	.	.	.
[8g-	all	.	.	.	.	.	.
=26	=26	=26	=26	=26	=26	=26	=26
4g-]	_	1G-M	.	voice	.	48.625	G-:maj
4f	'cause	.	.	.	.	.	.
8f	you	.	.	.	.	.	.
8e-	played	.	.	.	.	.	.
8d-	it	.	.	.	.	.	.
[8f	cool	.	.	.	A	.	.
=27	=27	=27	=27	=27	=27	=27	=27
8f]	_	1A-M	.	voice	.	50.561	A-:maj
4.e-	_	.	.	.	.	.	.
8r	.	.	.	.	.	.	.
8e-	I	.	.	.	.	.	.
8f	should-	.	.	.	.	.	.
8e-	-'ve	.	.	.	.	.	.
=28	=28	=28	=28	=28	=28	=28	=28
8a-	did	1A-M	.	voice	.	52.498	A-:maj
8a-	it	.	.	.	.	.	.
8a-	my-	.	.	.	.	.	.
[8e-	-self	.	.	.	.	.	.
4e-]	_	.	.	.	.	.	.
4r	.	.	.	.	.	.	.
=29	=29	=29	=29	=29	=29	=29	=29
4a-	You	1A-M	newline	voice	.	54.435	A-:maj
4A-	don't	.	.	.	.	.	.
8A-	owe	.	.	.	.	.	.
8c	me	.	.	.	.	.	.
8e-	a	.	.	.	.	.	.
[8g-	thing	.	.	.	.	.	.
=30	=30	=30	=30	=30	=30	=30	=30
4g-]	_	1G-M	.	voice	.	56.361	G-:maj
4f	'cause	.	.	.	.	.	.
8f	I	.	.	.	.	.	.
8e-	played	.	.	.	.	.	.
8d-	the	.	.	.	.	.	.
[8f	fool	.	.	.	A	.	.
=31	=31	=31	=31	=31	=31	=31	=31
8f]	_	1A-M	.	voice	.	58.288	A-:maj
4.e-	_	.	.	.	.	.	.
8r	.	.	.	.	.	.	.
8e-	Oh	.	.	.	.	.	.
8f	no	.	.	.	.	.	.
[8a-	no	.	.	.	.	.	.
=32	=32	=32	=32	=32	=32	=32	=32
8a-]	_	1A-M	.	voice	.	60.215	A-:maj
4a-	no	.	.	.	.	.	.
8a-	no	.	.	.	.	.	.
8r	.	.	.	.	.	.	.
8a-	I	.	.	.	.	.	.
8f	think	.	.	.	.	.	.
8e-	it's	.	.	.	.	.	.
=33	=33	=33	=33	=33	=33	=33	=33
*>Letter>C	*>Letter>C	*>Letter>C	*>Letter>C	*>Letter>C	*>Letter>C	*>Letter>C	*>Letter>C
*>Label>Verse	*>Label>Verse	*>Label>Verse	*>Label>Verse	*>Label>Verse	*>Label>Verse	*>Label>Verse	*>Label>Verse
4a-	pret-	1A-M	newline	voice	.	62.141	A-:maj
8a-	-ty	.	.	.	.	.	.
[8e-	plain	.	.	.	C	.	.
8e-]	_	.	.	.	.	.	.
4.f	_	.	.	.	.	.	.
=34	=34	=34	=34	=34	=34	=34	=34
8r	.	2E-m	.	voice	.	64.071	E-:min
4g-	Hold-	.	.	.	.	.	.
8g-	-in'	.	.	.	.	.	.
8f	you	2D-M	.	voice	.	65.036	D-:maj
8f	would	.	.	.	.	.	.
8f	take	.	.	.	.	.	.
8f	a	.	.	.	.	.	.
=35	=35	=35	=35	=35	=35	=35	=35
4g-	ball	1A-M	.	voice	.	66.001	A-:maj
8f	and	.	.	.	.	.	.
16g-	chain	.	.	.	C	.	.
16f	_	.	.	.	.	.	.
4e-	_	.	.	.	.	.	.
4r	.	.	.	.	.	.	.
=36	=36	=36	=36	=36	=36	=36	=36
8r	.	2E-m	.	voice	.	67.931	E-:min
4g-	Ev'-	.	.	.	.	.	.
8g-	-ry	.	.	.	.	.	.
8f	bet	2D-M	.	voice	.	68.896	D-:maj
8f	I	.	.	.	.	.	.
8f	made	.	.	.	.	.	.
8f	was	.	.	.	.	.	.
=37	=37	=37	=37	=37	=37	=37	=37
4g-	all	1G-M	newline	voice	.	69.861	G-:maj
8f	in	.	.	.	.	.	.
[8g-	vain	.	.	.	C	.	.
8g-]	_	.	.	.	.	.	.
8f	'cause	.	.	.	.	.	.
8g-	what	.	.	.	.	.	.
8d-	I	.	.	.	.	.	.
=38	=38	=38	=38	=38	=38	=38	=38
4f	thought	1D-M	.	voice	.	71.795	D-:maj
8f	was	.	.	.	.	.	.
8f	an	.	.	.	.	.	.
8f	ocean	.	.	.	.	.	.
8f	of	.	.	.	.	.	.
8f	_	.	.	.	.	.	.
[8f	love	.	.	.	.	.	.
=39	=39	=39	=39	=39	=39	=39	=39
2.f_	_	1D-M	.	voice	.	73.728	D-:maj
8f]	_	.	.	.	.	.	.
16a-	_	.	.	.	.	.	.
16b-	_	.	.	.	.	.	.
=40	=40	=40	=40	=40	=40	=40	=40
2a-	_	1Dd	.	voice	.	75.661	D:dim
8r	.	.	.	.	.	.	.
8e-	Was	.	.	.	.	.	.
8f	just	.	.	.	.	.	.
8e-	a	.	.	.	.	.	.
=41	=41	=41	=41	=41	=41	=41	=41
8a-	wee	2A-M	newline	voice	.	77.594	A-:maj/5
8a-	drop	.	.	.	.	.	.
8a-	of	.	.	.	.	.	.
[8A-	rain	.	.	.	C	.	.
4A-]	_	2A-M	.	voice	.	78.555	A-:maj
4r	.	.	.	.	.	.	.
=42	=42	=42	=42	=42	=42	=42	=42
4r	.	1A-M	.	voice	.	79.515	A-:maj
8f	too	.	.	.	.	.	.
[8g-	bad	.	.	.	.	.	.
4g-]	_	.	.	.	.	.	.
8f	that	.	.	.	.	.	.
8e-	it	.	.	.	.	.	.
=43	=43	=43	=43	=43	=43	=43	=43
4f	could-	1A-M	newline	voice	.	81.436	A-:maj
8e-	-dn't	.	.	.	.	.	.
[8e-	rain	.	.	.	C	.	.
2e-]	_	.	.	.	.	.	.
=44	=44	=44	=44	=44	=44	=44	=44
4r	.	1A-M	.	voice	.	83.361	A-:maj
8r	.	.	.	.	.	.	.
[8e-	Oh,	.	.	.	.	.	.
8e-]	_	.	.	.	.	.	.
8e-	but	.	.	.	.	.	.
8d-	you	.	.	.	.	.	.
8c	don't	.	.	.	.	.	.
=45	=45	=45	=45	=45	=45	=45	=45
8d-	have	1D-M	.	voice	.	85.285	D-:maj/5
8c	to	.	.	.	.	.	.
8c	ex-	.	.	.	.	.	.
[8c	-plain	.	.	.	C	.	.
2c]	_	.	.	.	.	.	.
=46	=46	=46	=46	=46	=46	=46	=46
4r	.	1A-M	.	voice	.	87.209	A-:maj
8r	.	.	.	.	.	.	.
[8f	No	.	.	.	.	.	.
8f]	_	.	.	.	.	.	.
4a-	'cause	.	.	.	.	.	.
8r	.	.	.	.	.	.	.
=47	=47	=47	=47	=47	=47	=47	=47
*>Letter>B	*>Letter>B	*>Letter>B	*>Letter>B	*>Letter>B	*>Letter>B	*>Letter>B	*>Letter>B
*>Label>Chorus	*>Label>Chorus	*>Label>Chorus	*>Label>Chorus	*>Label>Chorus	*>Label>Chorus	*>Label>Chorus	*>Label>Chorus
4a-	I	1A-M	newline	voice	.	89.134	A-:maj
4A-	don't	.	.	.	.	.	.
8A-	blame	.	.	.	.	.	.
8c	you	.	.	.	.	.	.
8e-	at	.	.	.	.	.	.
[8g-	all	.	.	.	.	.	.
=48	=48	=48	=48	=48	=48	=48	=48
4g-]	_	1G-M	.	voice	.	91.065	G-:maj
4f	'cause	.	.	.	.	.	.
8f	you	.	.	.	.	.	.
8e-	played	.	.	.	.	.	.
8d-	it	.	.	.	.	.	.
[8f	cool	.	.	.	A	.	.
=49	=49	=49	=49	=49	=49	=49	=49
8f]	_	1A-M	.	voice	.	92.997	A-:maj
4.e-	_	.	.	.	.	.	.
8r	.	.	.	.	.	.	.
8e-	I	.	.	.	.	.	.
8f	should-	.	.	.	.	.	.
8e-	-'ve	.	.	.	.	.	.
=50	=50	=50	=50	=50	=50	=50	=50
8a-	did	1A-M	.	voice	.	94.929	A-:maj
8a-	it	.	.	.	.	.	.
8a-	my-	.	.	.	.	.	.
[8e-	-self	.	.	.	.	.	.
4e-]	_	.	.	.	.	.	.
4r	.	.	.	.	.	.	.
=51	=51	=51	=51	=51	=51	=51	=51
4cc	You	1A-M	newline	voice	.	96.86	A-:maj
4b-	don't	.	.	.	.	.	.
8a-	owe	.	.	.	.	.	.
8a-	me	.	.	.	.	.	.
8a-	a	.	.	.	.	.	.
[8g-	thing	.	.	.	.	.	.
=52	=52	=52	=52	=52	=52	=52	=52
4g-]	_	1G-M	.	voice	.	98.807	G-:maj
4f	'cause	.	.	.	.	.	.
8f	I	.	.	.	.	.	.
8e-	played	.	.	.	.	.	.
8d-	the	.	.	.	.	.	.
[8f	fool	.	.	.	A	.	.
=53	=53	=53	=53	=53	=53	=53	=53
8f]	_	1A-M	.	voice	.	100.754	A-:maj
4.e-	_	.	.	.	.	.	.
8r	.	.	.	.	.	.	.
8e-	Oh	.	.	.	.	.	.
8f	no	.	.	.	.	.	.
[8a-	no	.	.	.	.	.	.
=54	=54	=54	=54	=54	=54	=54	=54
8a-]	_	1A-M	.	voice	.	102.7	A-:maj
4a-	no	.	.	.	.	.	.
[8a-	no	.	.	.	.	.	.
8a-]	_	.	.	.	.	.	.
8a-	no	.	.	.	.	.	.
4r	.	.	.	.	.	.	.
=55	=55	=55	=55	=55	=55	=55	=55
*>Letter>B	*>Letter>B	*>Letter>B	*>Letter>B	*>Letter>B	*>Letter>B	*>Letter>B	*>Letter>B
*>Label>Chorus	*>Label>Chorus	*>Label>Chorus	*>Label>Chorus	*>Label>Chorus	*>Label>Chorus	*>Label>Chorus	*>Label>Chorus
4cc	I	1A-M	newline	voice	.	104.647	A-:maj
8b-	don't	.	.	.	.	.	.
8a-	_	.	.	.	.	.	.
8a-	blame	.	.	.	.	.	.
8a-	you	.	.	.	.	.	.
8a-	at	.	.	.	.	.	.
[8b-	all	.	.	.	.	.	.
=56	=56	=56	=56	=56	=56	=56	=56
4b-]	_	1G-M	.	voice	.	106.563	G-:maj
4g-	'cause	.	.	.	.	.	.
8a-	you	.	.	.	.	.	.
8a-	played	.	.	.	.	.	.
8a-	it	.	.	.	.	.	.
[8b-	cool	.	.	.	A	.	.
=57	=57	=57	=57	=57	=57	=57	=57
8b-]	_	1A-M	.	voice	.	108.478	A-:maj
4.a-	_	.	.	.	.	.	.
4r	.	.	.	.	.	.	.
8f	that's	.	.	.	.	.	.
8e-	the	.	.	.	.	.	.
=58	=58	=58	=58	=58	=58	=58	=58
4a-	thing	1A-M	.	voice	.	110.394	A-:maj
8a-	to	.	.	.	.	.	.
16b-	do	.	.	.	.	.	.
16a-	_	.	.	.	.	.	.
8g-	_	.	.	.	.	.	.
8r	.	.	.	.	.	.	.
4r	.	.	.	.	.	.	.
=59	=59	=59	=59	=59	=59	=59	=59
4cc	You	1A-M	newline	voice	.	112.309	A-:maj
8b-	don't	.	.	.	.	.	.
8a-	_	.	.	.	.	.	.
8a-	owe	.	.	.	.	.	.
8b-	me	.	.	.	.	.	.
8a-	a	.	.	.	.	.	.
[8b-	thing	.	.	.	.	.	.
=60	=60	=60	=60	=60	=60	=60	=60
4b-]	_	1G-M	.	voice	.	114.21	G-:maj
4g-	'cause	.	.	.	.	.	.
8a-	I	.	.	.	.	.	.
8a-	played	.	.	.	.	.	.
8a-	the	.	.	.	.	.	.
[8b-	fool	.	.	.	A	.	.
=61	=61	=61	=61	=61	=61	=61	=61
8b-]	_	1A-M	.	voice	.	116.111	A-:maj
4.a-	_	.	.	.	.	.	.
8r	.	.	.	.	.	.	.
8a-	Oh	.	.	.	.	.	.
8b-	no	.	.	.	.	.	.
[8cc	no	.	.	.	.	.	.
=62	=62	=62	=62	=62	=62	=62	=62
8cc]	_	1A-M	.	voice	.	118.012	A-:maj
4cc	no	.	.	.	.	.	.
[8cc	no	.	.	.	.	.	.
8cc]	_	.	.	.	.	.	.
8cc	no	.	.	.	.	.	.
4r	.	.	.	.	.	.	.
=63	=63	=63	=63	=63	=63	=63	=63
*>Letter>C2	*>Letter>C2	*>Letter>C2	*>Letter>C2	*>Letter>C2	*>Letter>C2	*>Letter>C2	*>Letter>C2
*>Label>Verse	*>Label>Verse	*>Label>Verse	*>Label>Verse	*>Label>Verse	*>Label>Verse	*>Label>Verse	*>Label>Verse
1cc	yeah	1A-M	newline	strings	.	119.913	A-:maj
=64	=64	=64	=64	=64	=64	=64	=64
1r	.	2E-m	.	strings	.	121.853	E-:min
.	.	2D-M	.	strings	.	122.824	D-:maj
=65	=65	=65	=65	=65	=65	=65	=65
1r	.	1A-M	.	strings	.	123.794	A-:maj
=66	=66	=66	=66	=66	=66	=66	=66
1r	.	2E-m	.	strings	.	125.734	E-:min
.	.	2D-M	.	strings	.	126.705	D-:maj
=67	=67	=67	=67	=67	=67	=67	=67
1r	.	1A-M	newline	strings	.	127.675	A-:maj
=68	=68	=68	=68	=68	=68	=68	=68
1r	.	2E-m	.	strings	.	129.592	E-:min
.	.	2D-M	.	strings	.	130.551	D-:maj
=69	=69	=69	=69	=69	=69	=69	=69
[1a-	ooh	1A-M	.	strings	.	131.51	A-:maj
=70	=70	=70	=70	=70	=70	=70	=70
2a-]	_	1G-M	.	strings	.	133.428	G-:maj
4r	.	.	.	.	.	.	.
8a-	I	.	.	.	.	.	.
[8a-	said	.	.	.	.	.	.
=71	=71	=71	=71	=71	=71	=71	=71
2a-]	_	1D-M	newline	voice	.	135.345	D-:maj
4r	.	.	.	.	.	.	.
8a-	What	.	.	.	.	.	.
8a-	I	.	.	.	.	.	.
=72	=72	=72	=72	=72	=72	=72	=72
4f	thought	1D-M	.	voice	.	137.261	D-:maj
4f	was	.	.	.	.	.	.
4f	sure	.	.	.	.	.	.
8f	to	.	.	.	.	.	.
[8f	last	.	.	.	.	.	.
=73	=73	=73	=73	=73	=73	=73	=73
2f]	_	1D-M	.	voice	.	139.177	D-:maj
8r	.	.	.	.	.	.	.
8f	Sure	.	.	.	.	.	.
8a-	to	.	.	.	.	.	.
[8b	last	.	.	.	.	.	.
=74	=74	=74	=74	=74	=74	=74	=74
2b]	_	1Dd	.	voice	.	141.093	D:dim
8r	.	.	.	.	.	.	.
8a-	Was	.	.	.	.	.	.
8f	just	.	.	.	.	.	.
8e-	a	.	.	.	.	.	.
=75	=75	=75	=75	=75	=75	=75	=75
8a-	mi-	2A-M	newline	voice	.	143.009	A-:maj/5
8a-	-nute	.	.	.	.	.	.
8a-	in-	.	.	.	.	.	.
[8A-	-stead	.	.	.	D	.	.
2A-]	_	2A-M	.	voice	.	143.965	A-:maj
=76	=76	=76	=76	=76	=76	=76	=76
4r	.	1A-M	.	voice	.	144.92	A-:maj
8a-	Too	.	.	.	.	.	.
[8f	bad	.	.	.	.	.	.
4f]	_	.	.	.	.	.	.
8f	that	.	.	.	.	.	.
8f	I	.	.	.	.	.	.
=77	=77	=77	=77	=77	=77	=77	=77
4f	got	1A-M	newline	voice	.	146.832	A-:maj
8e-	mis-	.	.	.	.	.	.
[8e-	-led	.	.	.	D	.	.
2e-]	_	.	.	.	.	.	.
=78	=78	=78	=78	=78	=78	=78	=78
8r	.	1A-M	.	voice	.	148.735	A-:maj
[8e-	Ah,	.	.	.	.	.	.
8e-]	_	.	.	.	.	.	.
8d-	but	.	.	.	.	.	.
8e-	you	.	.	.	.	.	.
8d-	don't	.	.	.	.	.	.
8d-	have	.	.	.	.	.	.
8c	to	.	.	.	.	.	.
=79	=79	=79	=79	=79	=79	=79	=79
4d-	hang	2D-M	.	voice	.	150.638	D-:maj/5
8c	your	.	.	.	.	.	.
[8c	head	.	.	.	D	.	.
2c]	_	2A-M	.	voice	.	151.59	A-:maj
=80	=80	=80	=80	=80	=80	=80	=80
4r	.	1A-M	.	voice	.	152.542	A-:maj
8r	.	.	.	.	.	.	.
[8f	No	.	.	.	.	.	.
8f]	_	.	.	.	.	.	.
4a-	'cause	.	.	.	.	.	.
8r	.	.	.	.	.	.	.
=81	=81	=81	=81	=81	=81	=81	=81
*>Letter>B	*>Letter>B	*>Letter>B	*>Letter>B	*>Letter>B	*>Letter>B	*>Letter>B	*>Letter>B
*>Label>Chorus	*>Label>Chorus	*>Label>Chorus	*>Label>Chorus	*>Label>Chorus	*>Label>Chorus	*>Label>Chorus	*>Label>Chorus
4cc	I	1A-M	newline	voice	.	154.445	A-:maj
8b-	don't	.	.	.	.	.	.
8a-	_	.	.	.	.	.	.
8a-	blame	.	.	.	.	.	.
8a-	you	.	.	.	.	.	.
8a-	at	.	.	.	.	.	.
[8b-	all	.	.	.	.	.	.
=82	=82	=82	=82	=82	=82	=82	=82
4b-]	_	1G-M	.	voice	.	156.363	G-:maj
4g-	'cause	.	.	.	.	.	.
8a-	you	.	.	.	.	.	.
8a-	played	.	.	.	.	.	.
8a-	it	.	.	.	.	.	.
[8b-	cool	.	.	.	A	.	.
=83	=83	=83	=83	=83	=83	=83	=83
8b-]	_	1A-M	.	voice	.	158.282	A-:maj
4.a-	_	.	.	.	.	.	.
8r	.	.	.	.	.	.	.
8e-	I	.	.	.	.	.	.
8f	should-	.	.	.	.	.	.
8e-	-'ve	.	.	.	.	.	.
=84	=84	=84	=84	=84	=84	=84	=84
8a-	did	1A-M	.	voice	.	160.2	A-:maj
8a-	it	.	.	.	.	.	.
8a-	my-	.	.	.	.	.	.
[8b-	-self	.	.	.	.	.	.
4b-]	_	.	.	.	.	.	.
4r	.	.	.	.	.	.	.
=85	=85	=85	=85	=85	=85	=85	=85
4cc	You	1A-M	newline	voice	.	162.119	A-:maj
8b-	don't	.	.	.	.	.	.
8a-	_	.	.	.	.	.	.
8a-	owe	.	.	.	.	.	.
8b-	me	.	.	.	.	.	.
8a-	a	.	.	.	.	.	.
[8b-	thing	.	.	.	.	.	.
=86	=86	=86	=86	=86	=86	=86	=86
4b-]	_	1G-M	.	voice	.	164.053	G-:maj
4g-	'cause	.	.	.	.	.	.
8a-	I	.	.	.	.	.	.
8a-	played	.	.	.	.	.	.
8a-	the	.	.	.	.	.	.
[8b-	fool	.	.	.	A	.	.
=87	=87	=87	=87	=87	=87	=87	=87
8b-]	_	1A-M	.	voice	.	165.986	A-:maj
4.a-	_	.	.	.	.	.	.
4r	.	.	.	.	.	.	.
8f	no	.	.	.	.	.	.
[8a-	no	.	.	.	.	.	.
=88	=88	=88	=88	=88	=88	=88	=88
8a-]	_	1A-M	.	voice	.	167.92	A-:maj
4a-	no	.	.	.	.	.	.
[8a-	no	.	.	.	.	.	.
8a-]	_	.	.	.	.	.	.
8a-	no	.	.	.	.	.	.
4r	.	.	.	.	.	.	.
=89	=89	=89	=89	=89	=89	=89	=89
*>Letter>B	*>Letter>B	*>Letter>B	*>Letter>B	*>Letter>B	*>Letter>B	*>Letter>B	*>Letter>B
*>Label>Chorus	*>Label>Chorus	*>Label>Chorus	*>Label>Chorus	*>Label>Chorus	*>Label>Chorus	*>Label>Chorus	*>Label>Chorus
4a-	I	1A-M	newline	voice	.	169.854	A-:maj
4A-	don't	.	.	.	.	.	.
8A-	blame	.	.	.	.	.	.
8c	you	.	.	.	.	.	.
8e-	at	.	.	.	.	.	.
[8g-	all	.	.	.	.	.	.
=90	=90	=90	=90	=90	=90	=90	=90
4g-]	_	1G-M	.	voice	.	171.766	G-:maj
4f	'cause	.	.	.	.	.	.
8f	you	.	.	.	.	.	.
8e-	played	.	.	.	.	.	.
8d-	it	.	.	.	.	.	.
[8f	cool	.	.	.	A	.	.
=91	=91	=91	=91	=91	=91	=91	=91
8f]	_	1A-M	.	voice	.	173.679	A-:maj
4.e-	_	.	.	.	.	.	.
8r	.	.	.	.	.	.	.
8e-	'cause	.	.	.	.	.	.
8f	that's	.	.	.	.	.	.
8e-	the	.	.	.	.	.	.
=92	=92	=92	=92	=92	=92	=92	=92
4a-	thing	1A-M	.	voice	.	175.591	A-:maj
8a-	to	.	.	.	.	.	.
[8b-	do	.	.	.	.	.	.
4b-]	_	.	.	.	.	.	.
4r	.	.	.	.	.	.	.
=93	=93	=93	=93	=93	=93	=93	=93
*>Label>>Fadeout	*>Label>>Fadeout	*>Label>>Fadeout	*>Label>>Fadeout	*>Label>>Fadeout	*>Label>>Fadeout	*>Label>>Fadeout	*>Label>>Fadeout
4a-	You	1A-M	newline	voice	.	177.504	A-:maj
4A-	don't	.	.	.	.	.	.
8A-	owe	.	.	.	.	.	.
8c	me	.	.	.	.	.	.
8e-	a	.	.	.	.	.	.
[8g-	thing	.	.	.	.	.	.
=94	=94	=94	=94	=94	=94	=94	=94
4g-]	_	1G-M	.	voice	.	179.411	G-:maj
4f	'cause	.	.	.	.	.	.
8f	I	.	.	.	.	.	.
8e-	played	.	.	.	.	.	.
8d-	the	.	.	.	.	.	.
[8f	fool	.	.	.	A	.	.
=95	=95	=95	=95	=95	=95	=95	=95
8f]	_	1A-M	.	voice	.	181.318	A-:maj
4.e-	_	.	.	.	.	.	.
8r	.	.	.	.	.	.	.
8e-	Oh	.	.	.	.	.	.
8f	no	.	.	.	.	.	.
[8a-	no	.	.	.	.	.	.
=96	=96	=96	=96	=96	=96	=96	=96
8a-]	_	1A-M	.	voice	.	183.226	A-:maj
4a-	no	.	.	.	.	.	.
[8a-	no	.	.	.	.	.	.
8a-]	_	.	.	.	.	.	.
8a-	no	.	.	.	.	.	.
4r	.	.	.	.	.	.	.
=97	=97	=97	=97	=97	=97	=97	=97
4cc	I	1A-M	newline	voice	.	185.133	A-:maj
8b-	don't	.	.	.	.	.	.
8a-	_	.	.	.	.	.	.
8a-	blame	.	.	.	.	.	.
8a-	you	.	.	.	.	.	.
8a-	at	.	.	.	.	.	.
[8b-	all	.	.	.	.	.	.
=98	=98	=98	=98	=98	=98	=98	=98
4b-]	_	1G-M	.	voice	.	186.067	G-:maj
4g-	'cause	.	.	.	.	.	.
8a-	you	.	.	.	.	.	.
8a-	played	.	.	.	.	.	.
8a-	it	.	.	.	.	.	.
[8b-	cool	.	.	.	A	.	.
=99	=99	=99	=99	=99	=99	=99	=99
8b-]	_	1A-M	.	voice	.	187.002	A-:maj
4.a-	_	.	.	.	.	.	.
2r	.	.	.	.	.	.	.
=100	=100	=100	=100	=100	=100	=100	=100
1r	.	1A-M	.	voice	.	187.937	A-:maj
r;	.	1r;	.	r	.	188.871	N.C.
r;	.	1r;	.	r	.	192.209	N.C.
*-	*-	*-	*-	*-	*-	*-	*-
!!!BillboardChartDate: 1971/04/03
!!!BillboardPeak: 18
!!!BillboardWeeksOnChart: 12
!!!COC: The Miracles
!!!ENC: Nathaniel Condit-Schultz
!!!EST: Awating manual error checking and editing.
!!!OTL: I Don't Blame You At All
!!!RDF**chordsym: original McGill chord annotation + (implied pitch class set, with bass pitch in first position)
!!!RDF**harmony: **recip + pitch class of root + harmonic quality
!!!RDF**leadinstrument: original McGill primary instrumentation annotation
!!!RDF**phrase: newline = linebreak in original McGill transcription
!!!RDF**timestamp: McGill audio timestamp in seconds
!!!RDT: 2017/01/12/
!!!SampleActualRank: 50
!!!SampleID#: 0582
!!!SampleTargetRank: 52
